X:1
T:Title
%%score { 1 | 2 }
L:1/8
M:4/4
K:C
V:1 treble nm="Grand Piano"
V:2 bass 
V:1
 z4 z2[Q:1/4=100] [CE]>[DF] | [EG]2 [EG]2 [EG]2 [Ec]2 | c4 B2 B>c | d2 d2 c2 B2 |[M:3/4] [Ec]6 | %5
[M:1/4] [CE]>[DF] |[M:4/4] [EG]2 [EG]2 [EG]2 [Ec]2 | c4 B2 B>c | d2 G2 [^FB]2 [FA]2 |[M:3/4] G6 | %10
[M:1/4] G>G |[M:4/4] d3 c B2 B2 | [Ec]4 [EG]2 [CE]>[DF] | [EG]2 [Gc]2 [FB]2 [Ec]2 |[M:3/4] d6 | %15
[M:1/4] d>d |[M:4/4] [Ge][Ge][Ge][Fd] [Ec]2 [Ge]2 | d4 c2 c>A | G2 [Ec]2 B2 B2 |[M:3/4] [Ec]6 |] %20
V:2
 z4 z2 [C,G,]>[C,G,] | [C,C]2 [C,C]2 [C,C]2 [C,C]2 | [G,DF]4 [G,DF]2 [G,DF]>[G,CE] | %3
 [G,B,F]2 [G,B,F]2 [G,CF]2 [G,DF]2 |[M:3/4][K:bass] [C,C]6 |[M:1/4] [C,G,]>[C,G,] | %6
[M:4/4] [C,C]2 [C,C]2 [C,C]2 [C,C]2 | [G,DF]4 [G,DF]2 [G,DF]>[G,CE] | %8
 [G,B,G]2[K:bass] [G,B,]2 [D,D]2 [D,C]2 |[M:3/4] [G,B,]6 |[M:1/4] G,>G, | %11
[M:4/4][K:treble] [G,B,F]3 [G,CF] [G,DF]2 [G,DF]2 | [C,C]4 [C,C]2 [C,G,]>[C,G,] | %13
 [C,C]2 [E,C]2 [D,G,]2 [C,C]2 |[M:3/4][K:treble] [G,B,G]6 |[M:1/4] [G,B,G]>[G,B,G] | %16
[M:4/4][K:bass] [C,C][C,C][C,C][C,G,] [C,G,]2 [C,C]2 | [F,A,F]4 [F,A,F]2 [F,A,F]>[F,CF] | %18
 [E,C]2 [C,G,]2[K:treble] [G,D]2 [G,F]2 |[M:3/4][K:bass] [C,G,]6 |] %20

